src/bright/hiso font bright_2692.svg

<svg xmlns="http://www.w3.org/2000/svg" width="126" height="126" viewBox="0 0 126 126"><path fill="#000101" d="M99 36l-45 22.5v-9l-27-13.5-27 13.5v54l27 13.5 27-13.5v-18l54-27v-18l-9-4.5zm-48 65.65l-24 12v-50.65l24-12v50.65zm54-45l-51 25.5v-14.65l51-25.521v14.671z"/></svg>

<svg xmlns="http://www.w3.org/2000/svg" width="126" height="126"><path fill="#000101" d="M99 36L54 58.5v-9L27 36 0 49.5v54L27 117l27-13.5v-18l54-27v-18L99 36zm-48 65.65l-24 12V63l24-12v50.65zm54-45l-51 25.5V67.5l51-25.521V56.65z"/></svg>
